X:1
T:- # -
%%score [ 1 2 3 4 ]
L:1/8
M:4/4
K:F
V:1 treble nm="Sopran" snm=" "
V:2 treble nm="Alt"
V:3 treble-8 nm="Tenor"
V:4 bass nm="Baß"
V:1
"^Christobal de Morales" z8 | d8 | c4 d4 | c4"^XIII.  Haec est vera fraternitas" A4- | %4
w: |Haec|est ve-|ra fra-|
"^5" A2 B2 c4 | A4"^1546" B4- | B2 AG A4 | G2 d4 c2 | d2 B2 c4 |"^10" B3 c d4- | d4 z4 | z2 d4 c2 | %12
w: * * ter-|ni *||tas, haec est|ve- ra fra-|ter- ni- tas,||haec est|
 d2 B2 c3 d | _e2 d4 c2 |"^15" d2 B2 A4- | A8 | B4 A4 | z2 B2 c4 | d4 d4 |"^20" z4 z2 d2- | %20
w: ve- ra fra- *|* ter- *|||ni- tas,|quae num-|* quam|po-|
 d2 c2 A2 B2 | A3 B c2 d2- | d2 c2 d2 B2 | c4 B4 |"^25" A4 z2 B2- | B2 A2 B2 G2 | c4 B2 B2 | %27
w: |||tu- *|\-it vi-|* o- la- ri|cer- ta- mi-|
 A2 d4 c2 | d2 B2 A2 A2 |"^30" B4 A2 B2 | AG G4 ^F2 | G4 z2 G2 | G2 B3 c d2 | c3 B AG c2- | %34
w: ne, vi- o-|la- * ri cer-|ta- * *|* * * mi-|~ne, qui|ef- fu- * *||
"^35" c2 =B2 c4 | z4 z2 G2 | G4 B4 | c4 c4 | d4 z2 d2- |"^40" d2 c2 B4- | B4 A4- | A2 B4 AG | F8 | %43
w: * * so,|qui|ef- fu-|* so|* san-|||* gui- * *|~ne,|
 z2 A2 B2 G2 |"^45" d2 B2 c2 d2- | dc B4 A2 | B8 | z2 G2 B2 A2 | G4 F4 |"^50" z4 z2 A2 | %50
w: se- cu- ti|sunt do * *|* * * mi-|\-num,|se- cu- *|ti sunt,|se-|
 B2 G2 d3 c | d2 c3 B B2- | B2 A2 B4- | B4 z2 B2 |"^55" d4 d2 d2 | c2 d2 Bcde | fd e3 d d2- | %57
w: cu- ti sunt *|* do- * *|* mi- num,|* con-|temp- nen- tes|au- las re * * *||
 d2 ^c2 d4- | d8- |"^60" d4 z4 | z8 | z8 | z8 | z2 B2 c4 |"^65" d4 c2 A2 | B4 A2 A2 | B3 c d2 A2 | %67
w: * gi- as,||||||per- ve-|ne- * *|* runt, per-|ve- * * ne-|
 B2 c2 F2 G2 | A2 F2 G4 |"^70" F4 z2 d2 | e2 d2 B2 d2- | dc d2 c4 | z2 A2 B4 | A2 F2 G2 A2 | %74
w: ||runt ad|reg- na cae- le-|* * sti- a,|ad reg-|na cae * *|
"^75" B4 A4 | G2 A2 F2 B2 | AG G4 ^F2 | G8 |[M:4/4]"^Secunda pars" A8 | B4 G3 A | Bc d3 c B2- | %81
w: le- *|sti- * a, cae-|le * * sti-|a.|Ec-|||
 B2 A2 B2 d2- | d2 c2 A2 c2- | c2 =B2 c4- |"^85" c4 z4 | z2 d4 c2 | d3 e f2 e2- | ed d4 ^c2 | %88
w: * * ce quam|* bo * *|* * num||et quam|io- * * cun-||
 d4 z2 d2 |"^90" f2 e2 c3 d | e2 d2 z4 | z2 A2 c2 A2 | F2 G2 A2 B2 | A4 d4- |"^95" d4 z4 | %95
w: dum ha-|* bi- ta- re|fra- tres,|ha- bi- ta-|re fra- tres in|u- num,||
 z2 e2 f2 d2 | c2 d2 e2 f2 | ed d4 ^c2 | d3 c/d/ e2 d2 |"^100" G2 G2 A2 B2- | B2 AG F4 | z2 B2 c4 | %102
w: ha- bi- ta-|re fra- tres in|u- * * *||\-num, in u- *|* * * num,|con- temp-|
 d4 c2 d2 | Bcde f2 e2- |"^105" ed d4 ^c2 | d2 B2 A4 | z8 | z2 d4 c2 | f4 e4 |"^110" z2 d4 c2- | %110
w: nen- tes au-|las * * * * re-||* gi- as||per- ve-|ne- runt|ad reg-|
 c2 A2 B4 | A3 B c2 d2- | d2 ^c2 d2 d2- | d2 B2 G2 A2 |"^115" B2 c2 F2 z2 | c4 B2 A2- | AG G4 ^F2 | %117
w: * na cae-|le * * *|* sti- a, ad|* reg- na cae-|le- sti- a,|cae- le- *|* * * sti-|
 G8- | G8- | G8- | G8 |] %121
w: a.||||
V:2
 G8 | F4 G4 | E2 F4 D2 | E2 F3 C F2- | FEFD ED G2- | G2 ^F2 G3 =F | D2 D2 F4 | D4 C4 | z2 G4 F2 | %9
w: Haec|est ve-|ra fra- ter-|ni- tas, * *|* * * * * * haec|* est ve- *|\-ra fra- ter-|ni- ~tas,|haec est|
w: |||||||||
 G4 D4 | z4 z2 G2- | G2 F2 G2 E2 | F2 G2 E2 F2 | z2 B2 G2 A2- | A2 GF E2 F2 | E2 E2 F2 A2 | %16
w: ve- ~ra,|haec|* est ve- ra|fra- ter- ni- tas,|haec est ve-|* * * ra fra-|ter- ni- tas, *|
w: |||||||
 G3 F E2 F2- | F2 (D2 E4) | (D8 | z2) F4 G2 | A4 F2 G2- | GE F4 ED | E2 E2 D4 | z2 F4 E2 | %24
w: |||quae num-|* quam po||* tu- it|vi- o-|
w: ||||||||
 F2 C2 F2 E2 | F3 E DC D2- | D2 C2 D2 B,2 | C2 G,2 C4 | F,2 F3 C F2- | F2 E2 F4 | FEDC D4- | D8 | %32
w: \-la- ri cer- *|ta- * * * *|* mi~- ~ne, vi-|* o- la|* cer- * *|* * ta-|\-mi * * * ne,||
w: ||||ri * * *||||
 z2 D2 D4 | F6 G2 | A2 G2 E2 F2- | FE E3 D D2- | D2 C2 D4 | z8 | z2 D2 D2 F2- | FG A2 G4- | %40
w: qui ef-|fu- *|* * so san-||* gui~- ~ne,||qui ef- fu-|* * * so|
w: ||||||||
 G2 G2 E2 F2- | FE D4 C2 | D4 z4 | z4 z2 D2 | F2 D2 F4 | z2 D2 F4- | F2 D2 G4 | F2 E3 D D2- | %48
w: * san- gui *||~ne,|se-|cu- ti ~sunt,|se- cu-|* ti sunt|do * * *|
w: ||||||||
 D2 C2 D3 E | F8 | z2 D2 F4 | G2 A2 G2 G2 | F4 z2 B,2 | D4 D2 D2 | B,CDE F2 G2 | E2 F2 G4 | %56
w: * mi- num, *||se- cu-|ti sunt do- mi-|\-num, con-|temp- nen- tes|au * * * * las|re- * gi-|
w: ||||||||
 F2 G3 FED | E4 D2 D2 | F6 F2 | D4 z2 B,2 | D2 D2 C2 D2 | B,CDE F2 E2- | ED D4 C2 | D2 D2 E2 F2 | %64
w: |* ~as, con-|temp- nen-|~tes, con-|temp- nen- tes au-|las * * * * re-|* * * gi-|~as, per- ve- *|
w: ||||||||
 D2 G4 F2 | D2 G4 F2 | G3 F D2 F2 | E4 D2 E2- | ED D4 C2 | D6 CB, | C2 D2 z4 | z2 D2 E2 C2 | %72
w: * * ne-|~runt, per- ve-|||||ne- runt|ad reg- na|
w: ||||||||
 D3 C B,CDE | F3 E C2 F2 | D2 G4 F2 | G2 F2 z2 D2 | E2 C2 D3 C | B,2 G,2 D4 |[M:4/4] F8 | G4 E4 | %80
w: cae- * le * * *||* sti- *|a, ~ ad|reg- na cae- *||Ec-|ce *|
w: |||||le- sti- ~a.|||
 z2 G2 F2 G2 | F4 D3 E | FG A3 GEF | G4 E2 F2 | G4 z4 | z4 z2 A2- | A2 G2 A3 G | F2 D2 E4 | D4 z4 | %89
w: quam bo *||||\-num|et|* quam io- *|* * cun-|dum|
w: |||||||||
 z8 | z2 D2 F2 D2 | C2 D2 E4 | z8 | z8 | z2 A2 B4 | G4 F3 G | A2 F2 G2 A2 | GFED E4 | D4 z4 | z8 | %100
w: |ha- bi- ta-|re fra- tres,|||ha- *|bi- ta- *|re fra- tres in|u * * * *|num,||
w: |||||||||||
 z4 z2 F2 | G4 A4 | F3 G A2 F2 | G4 F2 G2- | GFED E2 E2 | D4 z2 A2- | A2 G2 A4 | D2 A4 A2 | %108
w: con-|temp- nen-|tes * * *|au- las re-|* * * * * gi-|as per-|* ve- ne-|runt ad reg-|
w: ||||||||
 A2 F2 A4- | A2 G2 F4 | E2 F4 E2 | F2 A4 G2 | A4 F3 E | F2 G2 D4 | z2 A4 G2 | E2 G3 F F2- | %116
w: na cae- le-||* * sti-|a, ad reg-|na cae- *|le- sti~- ~a,|ad reg-|na cae- * le-|
w: ||||||||
 FEDC D2 D2- | D2 B,2 G,2 G2- | GF _E2 D2 G,2 | C2 D2 _E4 | D8 |] %121
w: * * sti * ~a, ad|* * * cae-|* * \- le- *|* * sti-|a.|
w: |* reg- na *||||
V:3
 z8 | z8 | z8 | z4 d4- | d4 c4 | d4 B2 GA | Bc d3 c c2- | c2 B2 c2 c2 | f2 d2 c3 d | e2 d3 e f2- | %10
w: |||Haec|* est|ve- ra fra *|* * ter- * *|* ni- tas, haec|est ve- ra *|* fra * *|
w: ||||||||||
 fe d4 c2 | d4 z4 | z4 z2 c2- | c2 B2 c4 | A2 B2 c2 d2- | d2 c2 d4 | z2 B2 c4 | d4 c2 A2 | %18
w: * * ter- ni-|~tas,|haec|* est ve-|ra fra- ter- *|* ni- tas,|quae num-|quam po *|
w: ||||||||
 B3 c d2 B2 | c4 d3 e | f2 e2 d2 G2 | d3 c/B/ A2 B2 | G2 A2 D2 d2- | d2 c2 d2 B2 | c4 A2 B2 | %25
w: ||* tu- it, quae|num- * * * quam|po- tu- it vi-|* o- la- ri|cer- ta- *|
w: |||||||
 c4 B4 | z2 f4 e2 | f2 d2 e4 | d4 c2 d2- | d2 cB c2 d2 | cBAG A4 | G4 z2 G2 | G4 B4 | c4 c4 | %34
w: mi- ne,|vi- o-|la- ri cer-|ta- * *||* * * * mi-|~ne, qui|ef- fu-|* so|
w: |||||||||
 z2 d4 c2 | A2 B3 AGF | G4 F2 B2- | B2 AG A4 | B2 FG AF B2 | AF f4 d2 | _e2 d4 c2 | d4 z2 G2 | %42
w: san- gui-||~- ~ne, qui|* * * ef-|fu * * * * *|so * san- *|* * gui-|~ne, se-|
w: ||||||||
 B2 A2 d4 | c2 d3 c B2 | A2 B4 A2 | B4 c4 | B8 | z8 | z2 G2 B2 A2 | d4 c2 d2- | d2 cB A2 d2- | %51
w: cu- ti sunt|do- * * mi-|num, do- *|mi- *|\-num,||se- cu- ti|sunt do- *||
w: |||||||||
 de f2 d2 _e2 | c4 B4 | z2 B2 d4 | d2 d2 B2 B2 | c2 B2 GABc | d2 c3 d B2 | A4 z2 B2 | d4 d2 d2 | %59
w: |\-mi- num,|con- temp-|nen- tes au- las|re- gi- * * * *||\-as, con-|temp- nen- tes|
w: ||||||||
 B2 B2 c2 F2 | B4 A2 F2 | G2 B2 A2 B2- | BAGF G3 A | B4 A4 | z8 | z2 B2 c2 d2 | G2 BA Bc d2- | %67
w: au- las re *||||gi- ~as,||per- ve- *||
w: ||||||||
 d2 c2 d2 B2 | c2 d2 G4 | z2 A2 B2 A2- | A2 F2 G2 A2 | F2 B2 AG G2- | G2 ^F2 G4 | z2 d2 _e2 d2- | %74
w: * ne- runt, per-|ve- ne- runt|ad reg- na|* cae- le- *||* sti- a,|ad reg- na|
w: |||||||
 d2 B2 c2 d2 | G2 d4 d2 | cBAG A2 A2 | G8 |[M:4/4] d8 | d4 c4 | z8 | c4 B4 | c4 c4 | d4 c4 | %84
w: * cae- le- sti-|a, ce- le-|* * * * * sti-|a.|Ec-|ce *||quam *|* bo-|* num|
w: ||||||||||
 z2 c4 B2 | c2 d2 e2 f2- | fe d4 c2 | d2 B2 A4 | z2 d2 f2 d2 | c3 d e2 c2- | c2 B2 c2 d2 | %91
w: et quam|io- * * cun-||* * dum|ha- * bi-|\-ta- * re fra-||
w: |||||||
 e2 d4 c2 | d2 d2 f2 d2 | c2 d2 GABc | de f2 _e2 d2- | d2 c2 d4 | z8 | z8 | z2 B2 c2 d2 | %99
w: * * tres,|ha- bi- ta- re|fra- * * * * *|* * tres in u-|* * num,|||con- temp- nen-|
w: ||||||||
 B2 c2 A2 d2- | d2 c2 d4- | d2 cB A2 F2 | B4 A2 B2 | GABc d2 c2- | cd B2 A2 A2 | B2 G2 d4 | %106
w: \-tes au- las re-|* gi- as,|* * * * au-|las re- gi-|as * * * * *|||
w: |||||* * * * per-|ve- ne- runt,|
 z2 d4 c2 | f4 e4 | z2 d4 c2 | A2 B2 A3 B | c2 d4 cB | c2 f2 e2 d2 | e4 d4- | d4 z2 d2- | %114
w: ||||* * sti *|a, cae- le- *|sti- a,|* ad|
w: per- ve-|ne- runt|ad reg-|na cae- le- *|||||
 d2 c2 A2 c2- | cBGA Bc d2 | cBAG A2 A2 | G2 d2 B2 G2 | c2 B4 _e2- | e2 d2 c4 | =B8 |] %121
w: * reg- na cae|* * * * * * le-|* * * * * sti~-|~a, ad reg- na|cae- le- *|* * sti-|a.|
w: |||||||
V:4
 z8 | z8 | z8 | z8 | z8 | z4 G,4- | G,4 F,4 | G,4 E,2 F,2- | F,2 G,2 A,4 | G,4 z2 D,2 | %10
w: |||||Haec|* est|ve- * *||ra fra-|
 F,2 G,2 E,4 | D,4 z4 | z2 G,4 F,2 | G,4 E,2 F,2- | F,2 G,2 A,2 D,2 | A,4 z2 F,2 | G,4 A,4 | %17
w: ter- * ni-|~tas,|haec est|ve- ra fra-|* * ter- ni-|tas, quae|num- quam|
 F,2 G,2 C,4 | G,8 | F,4 B,4 | A,4 z4 | %21
w: po- tu- it|vi-|o- la-|ri,|
"^© Michael Wendel 2005\nThis edition may be freely duplicated, distributed, performed or recorded for non-profit performance or use.\n" z8 | %22
w: |
 z4 z2 B,2- | B,2 A,2 B,2 G,2 | A,4 F,2 G,2 | F,4 z2 B,2- | B,2 A,2 B,2 G,2 | A,2 B,2 A,4 | %28
w: vi-|* o- la- ri|cer- ta- mi-|ne, vi-|* o- la *|* * ri,|
 D,4 F,4 | G,4 F,2 B,,2 | F,2 G,2 D,4 | z2 G,2 G,2 B,2- | B,C D2 G,2 B,2 | A,2 F,4 E,2 | %34
w: vi- o-|la- ri cer-|\-ta- mi- ne,|qui ef- fu||so san- *|
 F,2 G,2 C,2 F,2- | F,D, G,3 F,E,D, | E,4 D,2 B,,2 | F,8 | z2 D,2 D,4 | F,4 G,4 | G,4 A,4 | %41
w: * gui- ne, san-||* * gui-|ne,|qui ef-|fu- *|\-so *|
 F,2 G,2 _E,4 | D,4 z2 D,2 | F,2 D,2 G,4 | F,2 G,2 F,4 | B,,4 F,4 | D,2 G,4 F,E, | %47
w: san- * gui-|~ne, se-|cu- ti sunt|do- mi- num,|se- cu-|\-ti~~ sunt do *|
 D,2 C,2 D,2 F,2 | E,4 D,4 | z2 D,2 F,2 D,2 | G,4 F,2 B,2- | B,2 F,2 G,2 _E,2 | F,4 B,,4- | B,,8- | %54
w: |mi- num,|se- cu- ti|sunt do- *||\-mi- ~num,||
 B,,4 z4 | z8 | z8 | z8 | z2 B,,2 D,4 | D,2 D,2 C,2 D,2 | B,,C,D,E, F,2 D,2 | G,4 F,2 G,2- | %62
w: ||||con- temp-|nen- tes au- las|re- * * * * *||
 G,F,E,D, E,4 | D,2 G,4 F,2 | B,2 G,2 A,4 | G,4 z4 | z4 z2 F,2 | G,2 A,2 D,2 G,2 | F,2 D,2 E,4 | %69
w: * * * * gi-|as per- ve-|ne * *|~runt,|per-|\-ve * * *|* * ne-|
 D,8 | z2 D,2 _E,2 D,2- | D,2 B,,2 C,2 _E,2 | D,4 z4 | z8 | z4 z2 D,2 | _E,2 D,4 B,,2 | %76
w: runt|ad reg- na|* cae- le- sti-|\-a,||ad|reg- na cae-|
 C,2 _E,2 D,4 | G,8 |[M:4/4] D,8 | G,4 C,4 | G,3 F, D,2 E,2 | F,4 B,,2 B,2- | B,2 A,2 F,2 A,2 | %83
w: le- * sti-|a.|Ec-|ce *|quam * * *|bo- * *||
 G,4 C,2 F,2- | F,2 E,2 F,2 G,2 | A,2 D,2 A,4 | B,4 A,4 | z4 z2 A,2 | B,2 G,2 F,2 G,2 | A,6 A,2 | %90
w: * num et|* quam io- *|* * cu-|* dum|ha-|bi- ta- re fra-|\-tres in|
 G,4 F,2 B,2 | A,2 D,2 A,2 A,2 | B,2 G,2 F,2 G,2 | A,2 F,2 B,3 A, | G,2 F,2 G,F,E,D, | E,4 D,4 | %96
w: u * *|* * num, ha-|bi- ta- re fra-|tres in u- *||* num,|
 z8 | z2 F,2 G,2 A,2 | F,2 G,2 C,2 G,2- | G,2 E,2 F,2 G,2 | E,4 D,4 | G,4 F,4 | B,,4 z4 | z8 | z8 | %105
w: |con- temp- *|nen- * tes au-|* las re- *|* gi-||as|||
 G,6 F,2 | B,4 A,4 | z2 D,2 A,4 | F,2 D,2 A,3 G, | F,2 G,2 D,E,F,G, | A,2 F,2 G,4 | %111
w: per- ve-|ne- runt|ad reg-|na cae- le *|||
 F,2 D,2 A,2 B,2 | A,4 D,4 | z2 G,4 F,2 | D,2 F,4 E,2 | C,4 D,3 E, | F,2 G,2 D,4 | z2 G,4 E,2 | %118
w: |sti- a,|ad reg-|na cae- *|le- * *|* sti- a,|ad reg-|
 C,2 G,3 F,_E,D, | C,2 B,,2 C,2 C,2 | G,8 |] %121
w: na cae- * * *|* * le- sti-|a.|

